assets/icon/sun.svg

<svg viewBox="0 0 512 512" xmlns="http://www.w3.org/2000/svg"><path d="M256 118a22 22 0 0 1-22-22V48a22 22 0 0 1 44 0v48a22 22 0 0 1-22 22ZM256 486a22 22 0 0 1-22-22v-48a22 22 0 0 1 44 0v48a22 22 0 0 1-22 22ZM369.14 164.86a22 22 0 0 1-15.56-37.55l33.94-33.94a22 22 0 0 1 31.11 31.11l-33.94 33.94a21.93 21.93 0 0 1-15.55 6.44ZM108.92 425.08a22 22 0 0 1-15.55-37.56l33.94-33.94a22 22 0 1 1 31.11 31.11l-33.94 33.94a21.94 21.94 0 0 1-15.56 6.45ZM464 278h-48a22 22 0 0 1 0-44h48a22 22 0 0 1 0 44ZM96 278H48a22 22 0 0 1 0-44h48a22 22 0 0 1 0 44ZM403.08 425.08a21.94 21.94 0 0 1-15.56-6.45l-33.94-33.94a22 22 0 0 1 31.11-31.11l33.94 33.94a22 22 0 0 1-15.55 37.56ZM142.86 164.86a21.89 21.89 0 0 1-15.55-6.44l-33.94-33.94a22 22 0 0 1 31.11-31.11l33.94 33.94a22 22 0 0 1-15.56 37.55ZM256 358a102 102 0 1 1 102-102 102.12 102.12 0 0 1-102 102Z" fill="#ffffff" class="fill-000000"></path></svg>

<?xml version="1.0" ?><svg height="512" viewBox="0 0 512 512" width="512" xmlns="http://www.w3.org/2000/svg"><title/><path d="M256,118a22,22,0,0,1-22-22V48a22,22,0,0,1,44,0V96A22,22,0,0,1,256,118Z"/><path d="M256,486a22,22,0,0,1-22-22V416a22,22,0,0,1,44,0v48A22,22,0,0,1,256,486Z"/><path d="M369.14,164.86a22,22,0,0,1-15.56-37.55l33.94-33.94a22,22,0,0,1,31.11,31.11l-33.94,33.94A21.93,21.93,0,0,1,369.14,164.86Z"/><path d="M108.92,425.08a22,22,0,0,1-15.55-37.56l33.94-33.94a22,22,0,1,1,31.11,31.11l-33.94,33.94A21.94,21.94,0,0,1,108.92,425.08Z"/><path d="M464,278H416a22,22,0,0,1,0-44h48a22,22,0,0,1,0,44Z"/><path d="M96,278H48a22,22,0,0,1,0-44H96a22,22,0,0,1,0,44Z"/><path d="M403.08,425.08a21.94,21.94,0,0,1-15.56-6.45l-33.94-33.94a22,22,0,0,1,31.11-31.11l33.94,33.94a22,22,0,0,1-15.55,37.56Z"/><path d="M142.86,164.86a21.89,21.89,0,0,1-15.55-6.44L93.37,124.48a22,22,0,0,1,31.11-31.11l33.94,33.94a22,22,0,0,1-15.56,37.55Z"/><path d="M256,358A102,102,0,1,1,358,256,102.12,102.12,0,0,1,256,358Z"/></svg>
